images/tiles/t12.svg

<svg xmlns="http://www.w3.org/2000/svg" width="1200" height="1200">
  <style>
    .primary {
      fill: #DEE1E6;
    }
    .secondary {
      fill: #F1F3F4;
    }
    .stroke {
      stroke: #292F33;
      stroke-width: 30;
      fill:none;
    }
  </style>
  <path class="primary" d="M 0,1200 V 800 C 200,800 400,1000 400,1200 Z M 0,0 H 400 C 400,115 433,230.1 489.8,335.7 715,260.7 800,130.3 800,0 H 1200 V 400 C 1007.4,400 907.6,539 855.8,705.6 A 936.5,936.5 0 0 1 489.8,335.6 C 369.4,375.8 209,400 0,400 Z M 1200,1200 H 800 C 800,1096.3 800,885 855.8,705.6 963.7,765 1081.8,800 1200,800 Z" />
  <path class="secondary" d="M 489.77892,335.67501 C 433.10022,230.13116 400,115.06558 400,0 H 800 C 800,130.347 715.0483,260.694 489.77889,335.67501 M 855.79152,705.57573 C 963.65132,765.08706 1081.8257,800 1200,800 V 400 C 1007.4418,400 907.58026,539.04497 855.79161,705.57554 M 855.79161,705.57554 C 800,884.97794 800,1096.2791 800,1200 H 400 C 400,1000 200,800 0,800 V 400 C 208.959,400 369.40259,375.7423 489.77889,335.67501 M 489.77892,335.67501 C 571.92116,488.6356 703.58665,621.59713 855.79152,705.57573" />
  <path class="stroke" d="M 800,0 C 800,200 600,400 0,400 M 0,800 C 200,800 400,1000 400,1200 M 1200,400 C 800,400 800,1000 800,1200 M 400,0 C 400,400 800,800 1200,800" />
</svg>

<svg xmlns="http://www.w3.org/2000/svg" width="1200" height="1200">
  <style>
    .fillColor {
      fill: #dee1e6;
    }
    .strokeColor {
      stroke: #292F33;
      stroke-width: 30;
    }
  </style>
  <g id="group">
    <path class="fillColor" style="stroke-width:0;" d="M0 1200V800c200 0 400 200 400 400H0zM0 0h400c0 115 33 230.1 89.8 335.7C715 260.7 800 130.3 800 0h400v400c-192.6 0-292.4 139-344.2 305.6a936.5 936.5 0 0 1-366-370C369.4 375.8 209 400 0 400V0zm1200 1200H800c0-103.7 0-315 55.8-494.4C963.7 765 1081.8 800 1200 800v400z"/>
    <path class="strokeColor" style="fill:none;" d="M800 0c0 200-200 400-800 400M0 800c200 0 400 200 400 400M1200 400c-400 0-400 600-400 800M400 0c0 400 400 800 800 800"/>
  </g>
</svg>
